symbols/be/PVO-{80}.svg

<?xml version="1.0" encoding="UTF-8" standalone="no"?>
<!-- Initially created with Inkscape, optimized by hand -->

<svg
   version="1.1"
   width="20"
   height="14.096813"
   id="svg1"
   xmlns="http://www.w3.org/2000/svg"
   xmlns:svg="http://www.w3.org/2000/svg">
  <defs
     id="defs1" />
  <rect
     x="0"
     y="0"
     width="20"
     height="14.096812"
     style="fill:#ffffff;stroke:none;stroke-width:0.0590319"
     id="Fond" />
  <circle
     cx="10"
     cy="7.0484047"
     r="5.8441563"
     style="fill:none;stroke:#000000;stroke-width:0.590319"
     id="circle1" />
  <path
     d="m 8.6186594,6.3390706 c 0.064,0.117334 0.149334,0.202668 0.234667,0.288001 -0.170667,0.138667 -0.266667,0.234668 -0.384001,0.426668 -0.149334,0.245334 -0.245334,0.416002 -0.245334,0.704002 v 1.429338 c 0,0.8853364 0.885336,1.4186714 1.7813386,1.4186714 0.885336,0 1.770672,-0.533335 1.770672,-1.4186714 v -1.429338 c 0,-0.277334 -0.02133,-0.458668 -0.170667,-0.704002 -0.128,-0.202667 -0.256001,-0.320001 -0.458668,-0.426668 0.106667,-0.096 0.16,-0.170667 0.245334,-0.288001 0.149334,-0.245334 0.213334,-0.416001 0.213334,-0.714669 v -0.704002 c 0,-0.832002 -0.768002,-1.429338 -1.600005,-1.429338 -0.8320026,0 -1.6000046,0.597336 -1.6000046,1.429338 v 0.704002 c 0,0.298668 0.064,0.469335 0.213334,0.714669 z m 2.2720066,-0.714669 c 0,0.448002 -0.448001,0.714669 -0.885336,0.714669 -0.4480006,0 -0.8960026,-0.266667 -0.8960026,-0.714669 v -0.704002 c 0,-0.448001 0.448002,-0.714669 0.8960026,-0.714669 0.437335,0 0.885336,0.266668 0.885336,0.714669 z M 11.072,9.1870796 c 0,0.490669 -0.565335,0.704003 -1.056003,0.704003 -0.5013346,0.01067 -1.0773366,-0.202668 -1.0773366,-0.704003 v -1.429338 c 0,-0.501334 0.554668,-0.725335 1.0666696,-0.725335 0.501335,0 1.06667,0.224001 1.06667,0.725335 z"
     id="text1"
     style="font-size:10.6667px;font-family:Isonorm;-inkscape-font-specification:'Isonorm, Normal';fill-rule:evenodd;stroke-width:0.0944511"
     aria-label="8" />
</svg>

<?xml version="1.0" encoding="UTF-8"?>
<svg xmlns="http://www.w3.org/2000/svg" xmlns:xlink="http://www.w3.org/1999/xlink" width="20" height="14.096813" viewBox="0 0 20 14.096813">
<path fill-rule="nonzero" fill="rgb(100%, 100%, 100%)" fill-opacity="1" d="M 0 0 L 20 0 L 20 14.097656 L 0 14.097656 Z M 0 0 "/>
<path fill="none" stroke-width="0.590319" stroke-linecap="butt" stroke-linejoin="miter" stroke="rgb(0%, 0%, 0%)" stroke-opacity="1" stroke-miterlimit="4" d="M 15.84375 7.046875 C 15.84375 10.277344 13.226562 12.890625 10 12.890625 C 6.773438 12.890625 4.15625 10.277344 4.15625 7.046875 C 4.15625 3.820312 6.773438 1.203125 10 1.203125 C 13.226562 1.203125 15.84375 3.820312 15.84375 7.046875 Z M 15.84375 7.046875 "/>
<path fill-rule="evenodd" fill="rgb(0%, 0%, 0%)" fill-opacity="1" d="M 8.617188 6.339844 C 8.683594 6.457031 8.769531 6.542969 8.851562 6.628906 C 8.683594 6.765625 8.585938 6.863281 8.46875 7.054688 C 8.320312 7.300781 8.222656 7.46875 8.222656 7.757812 L 8.222656 9.1875 C 8.222656 10.074219 9.109375 10.605469 10.003906 10.605469 C 10.890625 10.605469 11.777344 10.074219 11.777344 9.1875 L 11.777344 7.757812 C 11.777344 7.480469 11.753906 7.300781 11.605469 7.054688 C 11.476562 6.851562 11.347656 6.734375 11.148438 6.628906 C 11.253906 6.53125 11.308594 6.457031 11.390625 6.339844 C 11.542969 6.09375 11.605469 5.921875 11.605469 5.625 L 11.605469 4.921875 C 11.605469 4.089844 10.835938 3.492188 10.003906 3.492188 C 9.171875 3.492188 8.40625 4.089844 8.40625 4.921875 L 8.40625 5.625 C 8.40625 5.921875 8.46875 6.09375 8.617188 6.339844 Z M 10.890625 5.625 C 10.890625 6.074219 10.441406 6.339844 10.003906 6.339844 C 9.558594 6.339844 9.109375 6.074219 9.109375 5.625 L 9.109375 4.921875 C 9.109375 4.472656 9.558594 4.207031 10.003906 4.207031 C 10.441406 4.207031 10.890625 4.472656 10.890625 4.921875 Z M 11.070312 9.1875 C 11.070312 9.679688 10.507812 9.890625 10.015625 9.890625 C 9.515625 9.902344 8.9375 9.6875 8.9375 9.1875 L 8.9375 7.757812 C 8.9375 7.257812 9.492188 7.03125 10.003906 7.03125 C 10.507812 7.03125 11.070312 7.257812 11.070312 7.757812 Z M 11.070312 9.1875 "/>
</svg>
